icons/file-damage.svg

<svg
  width="24"
  height="24"
  viewBox="0 0 24 24"
  xmlns="http://www.w3.org/2000/svg"
  fill="none"
  stroke="currentColor"
  stroke-width="2"
  stroke-linecap="round"
  stroke-linejoin="round"
>
  <path d="M20 7l-4-4H4v18h16V7z" />
  <path d="M4 12l3 3 3-4 3 5 2-2.5 1.5.5" />
</svg>

<svg width="24" height="24" viewBox="0 0 24 24" fill="none" xmlns="http://www.w3.org/2000/svg">
<path d="M20 7L16 3H4V21H20V7Z" stroke="white" stroke-width="2" stroke-linecap="round" stroke-linejoin="round"/>
<path d="M4 12L7 15L10 11L13 16L15 13.5L16.5 14" stroke="white" stroke-width="2" stroke-linecap="round" stroke-linejoin="round"/>
</svg>
